X:1
%
T:Flora McIvor's Reel
M:C|
L:1/8
R:Reel
S:The mid-19th cent. music manuscript collection of James Goodman (County Cork, p. 109)
F: http://goodman.itma.ie/volume-one#?c=0&m=0&s=0&cv=112&z=-1221.4869%2C0%2C10618.9738%2C6432
Z:AK/Fiddler’s Companion
K:G
(G>A) (Bd) (e>d) (e>g)|(GB) (d>B) cA A2|G>A (B>d) (e>d) (eg)|eg (g/f/g/a/) bg g2:|
|:d>e dB (d>B)(d>B)|d>e d>B c>A A2|d>e dB (d>B)(d>B)|(A>G)(F>E) DCB,A,:|]

